lib/functional/weather&nature/dog.svg

<svg xmlns="http://www.w3.org/2000/svg" fill="none" stroke="currentColor" aria-hidden="true" viewBox="0 0 32 32"><g id="Icon-Dog"><g clip-path="url(#clip0_13_706)"><g id="size=md (32px)"><g id="Dog"><path id="Vector" stroke-linecap="round" stroke-linejoin="round" stroke-width="2" d="M16 24V27"/><path id="Vector_2" fill="#101828" d="M11.5 19C12.3284 19 13 18.3284 13 17.5C13 16.6716 12.3284 16 11.5 16C10.6716 16 10 16.6716 10 17.5C10 18.3284 10.6716 19 11.5 19Z"/><path id="Vector_3" fill="#101828" d="M20.5 19C21.3284 19 22 18.3284 22 17.5C22 16.6716 21.3284 16 20.5 16C19.6716 16 19 16.6716 19 17.5C19 18.3284 19.6716 19 20.5 19Z"/><path id="Vector_4" stroke-linecap="round" stroke-linejoin="round" stroke-width="2" d="M18 22L16 24L14 22"/><path id="Vector_5" stroke-linecap="round" stroke-linejoin="round" stroke-width="2" d="M19 5.99994L25.975 4.26244C26.1065 4.22934 26.2433 4.22332 26.3772 4.24475C26.5111 4.26618 26.6392 4.31461 26.7538 4.3871C26.8684 4.45959 26.967 4.55462 27.0437 4.66642C27.1204 4.77822 27.1736 4.90445 27.2 5.03744L29.25 15.9874C29.4375 17.0124 28.125 17.6124 27.475 16.7874L19 5.99994Z"/><path id="Vector_6" stroke-linecap="round" stroke-linejoin="round" stroke-width="2" d="M13.0006 5.99994L6.02557 4.26244C5.89409 4.22934 5.75725 4.22332 5.62337 4.24475C5.48948 4.26618 5.36136 4.31461 5.24678 4.3871C5.1322 4.45959 5.03356 4.55462 4.95685 4.66642C4.88014 4.77822 4.82697 4.90445 4.80057 5.03744L2.75057 15.9874C2.56307 17.0124 3.87557 17.6124 4.52557 16.7874L13.0006 5.99994Z"/><path id="Vector_7" stroke-linecap="round" stroke-linejoin="round" stroke-width="2" d="M13 6H19"/><path id="Vector_8" stroke-linecap="round" stroke-linejoin="round" stroke-width="2" d="M26 14.9126V23.0001C26 24.061 25.5786 25.0784 24.8284 25.8285C24.0783 26.5787 23.0609 27.0001 22 27.0001H10C8.93913 27.0001 7.92172 26.5787 7.17157 25.8285C6.42143 25.0784 6 24.061 6 23.0001V14.9126"/></g></g></g></g><defs><clipPath id="clip0_13_706"><rect width="32" height="32" fill="white" rx="5"/></clipPath></defs></svg>

<svg xmlns="http://www.w3.org/2000/svg" fill="none" stroke="currentColor" aria-hidden="true" viewBox="0 0 32 32"><g clip-path="url(#a)"><path stroke-linecap="round" stroke-linejoin="round" stroke-width="2" d="M16 24v3"/><path fill="#101828" d="M11.5 19a1.5 1.5 0 1 0 0-3 1.5 1.5 0 0 0 0 3Zm9 0a1.5 1.5 0 1 0 0-3 1.5 1.5 0 0 0 0 3Z"/><path stroke-linecap="round" stroke-linejoin="round" stroke-width="2" d="m18 22-2 2-2-2m5-16 6.975-1.738a1 1 0 0 1 1.225.775l2.05 10.95c.188 1.025-1.125 1.625-1.775.8L19 6Zm-6 0L6.027 4.262a1 1 0 0 0-1.225.775l-2.05 10.95c-.188 1.025 1.125 1.625 1.775.8L13 6Zm0 0h6"/><path stroke-linecap="round" stroke-linejoin="round" stroke-width="2" d="M26 14.913V23a4 4 0 0 1-4 4H10a4 4 0 0 1-4-4v-8.087"/></g><defs><clipPath id="a"><rect width="32" height="32" fill="#fff" rx="5"/></clipPath></defs></svg>
